X: 436
T:Sour Grass and Granite
M:3/4
L:1/8
K:D
FE|"D" DA, DF Ad|"A" c3 d eg |"Bm"f2 d2 A2 |"G"  B4 GD | B3 c d2|
"D" F4 GA |"Bm" Bc d2 F2 |E3 G FE |"D" DA, DF Ad |"A" c3 d eg|"Bm" f2 d2 A2|
"G"B4 GD | B3 c d2 |"D" F4 GA |"Bm" Bc dF "A7"E2 |"D" D4 de ||
"Bm" fB Bc df |"A" eA AB ce |"G" d2 c2 B2 |"D" A4 FD |"G" B2 BA FA |
"D"D3 F Ad |"Bm" f2 fe df |"A" e4 de |"Bm" fB Bc df |"A" eA AB ce |
"G" d2 c2 B2 |"D" A4 FD |"G" B2 BA FA |"D" D3 F Ad |"Bm" f2 fe "A7"dc |"D" d6||


%%newpage
%%scale 0.7

